X: 37900
T: South West, The
R: slide
M: 12/8
K: Dmajor
|:c|B2 A Bcd A2 F E2 F|D2 F EFE D2 E F2 A|
B2 A Bcd A2 F E2 F|D2 E F2 A B2 c d2:|
|:e|f2 d e2 d f2 d e2 c|d2 f efe d2 A B2 A|
f2 d e2 c dcB A2 F|D2 E F2 A B2 c d2:|

